X:1857
T:Bourrée
C:MCTB 1/54
M:3/8
L:1/8
K:C
e2e/f/|gg2|f/g/ag|f/e/dc|\
e2e/f/|gg2|a/g/fe|d3:|
|:e2e/f/|ec2|d/e/dc|B/c/dd|\
e2e/f/|ec2|d/e/dB|c3:|


